rospo-newyear-dark/symbolic/apps/accessories-character-map-symbolic.svg

<svg height="16" width="16" xmlns="http://www.w3.org/2000/svg"><path d="m7 0c-1.108 0-2 .892-2 2v2h5c .741 0 1.379.4042 1.725 1h2.025c.693 0 1.25.56 1.25 1.25v.5c0 .69-.557 1.26-1.25 1.25l-1.75-.0195v1.0195h2.5v1h-2.5v1h2c1.108 0 2-.892 2-2v-7c0-1.108-.892-2-2-2zm4 3h1v1h-1zm2 0h1v1h-1zm-1 3v1h1.6c.222 0 .4-.1804.4-.4004v-.1992c0-.22-.178-.4004-.4-.4004z" fill="#d3dae3" opacity=".3"/><path d="m2 5c-1.108 0-2 .892-2 2v7c0 1.108.892 2 2 2h7c1.108 0 2-.892 2-2v-7c0-1.108-.892-2-2-2zm7.123 2.1289.2579.9649-3.3809.9062-.2578-.9668zm-3.623 2.8711h3.25c.6925 0 1.25.557 1.25 1.25v2.5c0 .693-.5575 1.25-1.25 1.25h-2.5c-.6925 0-1.25-.557-1.25-1.25v-.5c0-.693.5575-1.257 1.25-1.25l2.7578.027-.0078-.627c0-.221-.1788-.4-.4004-.4h-3.0996zm.9004 3c-.2216 0-.4004.179-.4004.4v.2c0 .221.1788.4.4004.4h2.5996v-1z" fill="#d3dae3"/></svg>

<svg xmlns="http://www.w3.org/2000/svg" width="16" height="16" version="1.1">
 <path style="opacity:0.3;fill:#d3dae3" d="M 7,0 C 5.892,0 5,0.892 5,2 V 4 H 10 C 10.741,4 11.379,4.4042 11.725,5 H 13.75 C 14.443,5 15,5.56 15,6.25 V 6.75 C 15,7.44 14.443,8.01 13.75,8 L 12,7.9805 V 9 H 14.5 V 10 H 12 V 11 H 14 C 15.108,11 16,10.108 16,9 V 2 C 16,0.892 15.108,0 14,0 Z M 11,3 H 12 V 4 H 11 Z M 13,3 H 14 V 4 H 13 Z M 12,6 V 7 H 13.6 C 13.822,7 14,6.8196 14,6.5996 V 6.4004 C 14,6.1804 13.822,6 13.6,6 Z"/>
 <path style="fill:#d3dae3" d="M 2,5 C 0.892,5 0,5.892 0,7 V 14 C 0,15.108 0.892,16 2,16 H 9 C 10.108,16 11,15.108 11,14 V 7 C 11,5.892 10.108,5 9,5 Z M 9.123,7.1289 9.3809,8.0938 6,9 5.7422,8.0332 Z M 5.5,10 H 8.75 C 9.4425,10 10,10.557 10,11.25 V 13.75 C 10,14.443 9.4425,15 8.75,15 H 6.25 C 5.5575,15 5,14.443 5,13.75 V 13.25 C 5,12.557 5.5575,11.993 6.25,12 L 9.0078,12.027 9,11.4 C 9,11.179 8.8212,11 8.5996,11 H 5.5 Z M 6.4004,13 C 6.1788,13 6,13.179 6,13.4 V 13.6 C 6,13.821 6.1788,14 6.4004,14 H 9 V 13 Z"/>
</svg>
